src/rounded/icons/fi-rr-doctor.svg

<svg id="Layer_1" height="512" viewBox="0 0 24 24" width="512" xmlns="http://www.w3.org/2000/svg" data-name="Layer 1"><path d="m19 5h-3v-1a3 3 0 0 0 -3-3h-2a3 3 0 0 0 -3 3v1h-3a5.006 5.006 0 0 0 -5 5v8a5.006 5.006 0 0 0 5 5h14a5.006 5.006 0 0 0 5-5v-8a5.006 5.006 0 0 0 -5-5zm-9-1a1 1 0 0 1 1-1h2a1 1 0 0 1 1 1v1h-4zm12 14a3 3 0 0 1 -3 3h-14a3 3 0 0 1 -3-3v-8a3 3 0 0 1 3-3h14a3 3 0 0 1 3 3zm-6-4a1 1 0 0 1 -1 1h-2v2a1 1 0 0 1 -2 0v-2h-2a1 1 0 0 1 0-2h2v-2a1 1 0 0 1 2 0v2h2a1 1 0 0 1 1 1z"/></svg>

<svg id="Layer_1" data-name="Layer 1" xmlns="http://www.w3.org/2000/svg" viewBox="0 0 24 24"><path d="M19,5H16V4a3,3,0,0,0-3-3H11A3,3,0,0,0,8,4V5H5a5.006,5.006,0,0,0-5,5v8a5.006,5.006,0,0,0,5,5H19a5.006,5.006,0,0,0,5-5V10A5.006,5.006,0,0,0,19,5ZM10,4a1,1,0,0,1,1-1h2a1,1,0,0,1,1,1V5H10ZM22,18a3,3,0,0,1-3,3H5a3,3,0,0,1-3-3V10A3,3,0,0,1,5,7H19a3,3,0,0,1,3,3Zm-6-4a1,1,0,0,1-1,1H13v2a1,1,0,0,1-2,0V15H9a1,1,0,0,1,0-2h2V11a1,1,0,0,1,2,0v2h2A1,1,0,0,1,16,14Z"/></svg>
